packages/astro-components-stencil/src/icons/call-missed.svg

<svg xmlns="http://www.w3.org/2000/svg" viewBox="0 0 24 24"><g xmlns="http://www.w3.org/2000/svg" id="call-missed" fill-rule="nonzero">
            <path d="M18.89 7.7L12 14.59 6.41 9H10c.55 0 1-.45 1-1s-.45-1-1-1H4c-.55 0-1 .45-1 1v6c0 .55.45 1 1 1s1-.45 1-1v-3.59l6.29 6.29c.39.39 1.02.39 1.41 0l7.59-7.59a.996.996 0 000-1.41c-.38-.38-1.02-.38-1.4 0z"/>
        </g></svg>

<svg width="24" height="24" viewBox="0 0 24 24" fill="none" xmlns="http://www.w3.org/2000/svg">
<path d="M18.89 7.7L12 14.59L6.41 9H10C10.55 9 11 8.55 11 8C11 7.45 10.55 7 10 7H4C3.45 7 3 7.45 3 8V14C3 14.55 3.45 15 4 15C4.55 15 5 14.55 5 14V10.41L11.29 16.7C11.68 17.09 12.31 17.09 12.7 16.7L20.29 9.11C20.68 8.72 20.68 8.09 20.29 7.7C19.91 7.32 19.27 7.32 18.89 7.7Z" fill="black"/>
</svg>
